outputs/icons/device/screen_rotation_sharp.svg

<svg xmlns="http://www.w3.org/2000/svg" width="1200" height="1200" fill="none"><g clip-path="url(#a)"><path fill="#000" d="M824 126c163.5 77.5 280.5 236 298.505 424h75C1172.005 242 914.5 0 600 0l-33 1.5L757.5 192zm-447.998 948c-163.5-77-280.5-236-298.5-424h-75c25.5 308 283 550 597.498 550l33-1.5L442.502 1008zm82.5-1039.5-424 424 706.998 707 424-424zm282.998 1025-600.998-601 318-318 601.003 601z"/></g><defs><clipPath id="a"><path fill="#fff" d="M0 0h1200v1200H0z"/></clipPath></defs></svg>

<svg width="1200" height="1200" viewBox="0 0 1200 1200" fill="none" xmlns="http://www.w3.org/2000/svg"><g clip-path="url(#clip0_133_47)"><path d="M824 126C987.5 203.5 1104.5 362 1122.505 550H1197.505C1172.005 242 914.5 0 600 0L567 1.5L757.5 192L824 126ZM376.002 1074C212.502 997 95.502 838 77.502 650H2.502C28.002 958 285.502 1200 600 1200L633 1198.5L442.502 1008L376.002 1074ZM458.502 34.5L34.502 458.5L741.5 1165.5L1165.5 741.5L458.502 34.5ZM741.5 1059.5L140.502 458.5L458.502 140.5L1059.505 741.5L741.5 1059.5Z" fill="black"/></g><defs><clipPath id="clip0_133_47"><path width="24" fill="white" d="M0 0H1200V1200H0V0z"/></clipPath></defs></svg>
